bullseye-arrow.svg

<svg fill="currentColor" viewBox="0 0 24 24"><path d="M12 2A10 10 0 0 0 2 12a10 10 0 0 0 10 10 10 10 0 0 0 10-10c0-1.16-.21-2.31-.61-3.39l-1.6 1.6c.14.59.21 1.19.21 1.79a8 8 0 0 1-8 8 8 8 0 0 1-8-8 8 8 0 0 1 8-8c.6 0 1.2.07 1.79.21L15.4 2.6C14.31 2.21 13.16 2 12 2m7 0-4 4v1.5l-2.55 2.55C12.3 10 12.15 10 12 10a2 2 0 0 0-2 2 2 2 0 0 0 2 2 2 2 0 0 0 2-2c0-.15 0-.3-.05-.45L16.5 9H18l4-4h-3zm-7 4a6 6 0 0 0-6 6 6 6 0 0 0 6 6 6 6 0 0 0 6-6h-2a4 4 0 0 1-4 4 4 4 0 0 1-4-4 4 4 0 0 1 4-4z"/></svg>

<svg  viewBox="0 0 24 24" fill="currentColor"><path  d="M12,2A10,10 0 0,0 2,12A10,10 0 0,0 12,22A10,10 0 0,0 22,12C22,10.84 21.79,9.69 21.39,8.61L19.79,10.21C19.93,10.8 20,11.4 20,12A8,8 0 0,1 12,20A8,8 0 0,1 4,12A8,8 0 0,1 12,4C12.6,4 13.2,4.07 13.79,4.21L15.4,2.6C14.31,2.21 13.16,2 12,2M19,2L15,6V7.5L12.45,10.05C12.3,10 12.15,10 12,10A2,2 0 0,0 10,12A2,2 0 0,0 12,14A2,2 0 0,0 14,12C14,11.85 14,11.7 13.95,11.55L16.5,9H18L22,5H19V2M12,6A6,6 0 0,0 6,12A6,6 0 0,0 12,18A6,6 0 0,0 18,12H16A4,4 0 0,1 12,16A4,4 0 0,1 8,12A4,4 0 0,1 12,8V6Z"/></svg>
